assets/img/braze_icons/tag-03.svg

<svg fill="none" height="24" viewBox="0 0 24 24" width="24" xmlns="http://www.w3.org/2000/svg"><g fill="#801ed7"><path d="m5 2.00006c0-.55228.44772-1 1-1l4.1137-.00003c.6349-.000301 1.1147-.000529 1.5774.11055.4082.09799.7984.25961 1.1563.47892.4057.24863.7448.58806 1.1936 1.03728l7.6661 7.66622c.3905.3905.3905 1.0236 0 1.4142-.3905.3905-1.0237.3905-1.4142 0l-7.5941-7.59414c-.5525-.55252-.7181-.70898-.8964-.81828-.179-.10965-.3741-.19046-.5782-.23946-.2034-.04883-.4311-.05526-1.2124-.05526h-4.0118c-.55228 0-1-.44771-1-1z"/><path d="m3.63801 4.82712c-.56449.28762-1.02343.74656-1.31105 1.31105-.19279.37838-.26411.7716-.29641 1.16694-.0306.37458-.03059.82934-.03057 1.35649l-.00005 2.0964c-.00038.4069-.00071.7656.08294 1.1141.07349.3061.1947.5987.35919.8671.18723.3055.44114.559.72912.8464l7.88622 7.8862c.3727.3727.6943.6943.9808.9375.3024.2567.6308.4844 1.0347.6156.6026.1958 1.2516.1958 1.8541 0 .4039-.1312.7324-.3589 1.0348-.6156.2865-.2432.608-.5648.9807-.9375l2.5291-2.5291c.3728-.3727.6943-.6943.9376-.9808.2567-.3024.4843-.6308.6155-1.0347.1958-.6025.1958-1.2516 0-1.8541-.1312-.4039-.3588-.7324-.6155-1.0348-.2433-.2865-.5648-.608-.9376-.9807l-7.3861-7.38625c-.2875-.28799-.5409-.54189-.8465-.72913-.2684-.16448-.561-.2857-.8671-.35919-.3485-.08365-.7072-.08332-1.1141-.08294l-3.09636.00005c-.52714-.00002-.98192-.00003-1.35649.03057-.39534.0323-.78856.10362-1.16694.29641z"/></g></svg>

<svg width="24" height="24" viewBox="0 0 24 24" fill="none" xmlns="http://www.w3.org/2000/svg">
<path d="M5 2.00006C5 1.44778 5.44772 1.00006 6 1.00006L10.1137 1.00003C10.7486 0.999729 11.2284 0.999501 11.6911 1.11058C12.0993 1.20857 12.4895 1.37019 12.8474 1.5895C13.2531 1.83813 13.5922 2.17756 14.041 2.62678L21.7071 10.293C22.0976 10.6835 22.0976 11.3166 21.7071 11.7072C21.3166 12.0977 20.6834 12.0977 20.2929 11.7072L12.6988 4.11306C12.1463 3.56054 11.9807 3.40408 11.8024 3.29478C11.6234 3.18513 11.4283 3.10432 11.2242 3.05532C11.0208 3.00649 10.7931 3.00006 10.0118 3.00006L6 3.00006C5.44772 3.00006 5 2.55235 5 2.00006Z" fill="#801ED7"/>
<path d="M3.63801 4.82712C3.07352 5.11474 2.61458 5.57368 2.32696 6.13817C2.13417 6.51655 2.06285 6.90977 2.03055 7.30511C1.99995 7.67969 1.99996 8.13445 1.99998 8.6616L1.99993 10.758C1.99955 11.1649 1.99922 11.5236 2.08287 11.8721C2.15636 12.1782 2.27757 12.4708 2.44206 12.7392C2.62929 13.0447 2.8832 13.2982 3.17118 13.5856L11.0574 21.4718C11.4301 21.8445 11.7517 22.1661 12.0382 22.4093C12.3406 22.666 12.669 22.8937 13.0729 23.0249C13.6755 23.2207 14.3245 23.2207 14.927 23.0249C15.3309 22.8937 15.6594 22.666 15.9618 22.4093C16.2483 22.1661 16.5698 21.8445 16.9425 21.4718L19.4716 18.9427C19.8444 18.57 20.1659 18.2484 20.4092 17.9619C20.6659 17.6595 20.8935 17.3311 21.0247 16.9272C21.2205 16.3247 21.2205 15.6756 21.0247 15.0731C20.8935 14.6692 20.6659 14.3407 20.4092 14.0383C20.1659 13.7518 19.8444 13.4303 19.4716 13.0576L12.0855 5.67135C11.798 5.38336 11.5446 5.12946 11.239 4.94222C10.9706 4.77774 10.678 4.65652 10.3719 4.58303C10.0234 4.49938 9.6647 4.49971 9.2578 4.50009L6.16144 4.50014C5.6343 4.50012 5.17952 4.50011 4.80495 4.53071C4.40961 4.56301 4.01639 4.63433 3.63801 4.82712Z" fill="#801ED7"/>
</svg>
